svg/cursor_default_outline.svg

<svg xmlns="http://www.w3.org/2000/svg" viewBox="0 0 24 24"><path d="M10.07 14.27a.997.997 0 0 1 1.33.48l2.3 4.99 1.8-.85-2.31-4.98c-.24-.5-.02-1.1.48-1.33l.28-.08 2.3-.45L8 5.12V15.9l1.82-1.47zm3.57 7.7a.99.99 0 0 1-1.33-.47l-2.18-4.74-2.51 2.02c-.17.14-.38.22-.62.22a1 1 0 0 1-1-1V3a1 1 0 0 1 1-1c.24 0 .47.09.64.23l.01-.01 11.49 9.64a1.001 1.001 0 0 1-.44 1.75l-3.16.62 2.2 4.73c.26.5.02 1.09-.48 1.32z"/></svg>

<?xml version="1.0" encoding="UTF-8"?><!DOCTYPE svg PUBLIC "-//W3C//DTD SVG 1.1//EN" "http://www.w3.org/Graphics/SVG/1.1/DTD/svg11.dtd"><svg xmlns="http://www.w3.org/2000/svg" xmlns:xlink="http://www.w3.org/1999/xlink" version="1.1" id="mdi-cursor-default-outline" width="24" height="24" viewBox="0 0 24 24"><path d="M10.07,14.27C10.57,14.03 11.16,14.25 11.4,14.75L13.7,19.74L15.5,18.89L13.19,13.91C12.95,13.41 13.17,12.81 13.67,12.58L13.95,12.5L16.25,12.05L8,5.12V15.9L9.82,14.43L10.07,14.27M13.64,21.97C13.14,22.21 12.54,22 12.31,21.5L10.13,16.76L7.62,18.78C7.45,18.92 7.24,19 7,19A1,1 0 0,1 6,18V3A1,1 0 0,1 7,2C7.24,2 7.47,2.09 7.64,2.23L7.65,2.22L19.14,11.86C19.57,12.22 19.62,12.85 19.27,13.27C19.12,13.45 18.91,13.57 18.7,13.61L15.54,14.23L17.74,18.96C18,19.46 17.76,20.05 17.26,20.28L13.64,21.97Z" /></svg>
